images-src/boss_rabbit_dying_of_falling_slope_rise_left_05.svg

<?xml version="1.0" encoding="UTF-8" standalone="no"?>
<!-- Created with Inkscape (http://www.inkscape.org/) -->

<svg
   xmlns:dc="http://purl.org/dc/elements/1.1/"
   xmlns:cc="http://creativecommons.org/ns#"
   xmlns:rdf="http://www.w3.org/1999/02/22-rdf-syntax-ns#"
   xmlns:svg="http://www.w3.org/2000/svg"
   xmlns="http://www.w3.org/2000/svg"
   xmlns:sodipodi="http://sodipodi.sourceforge.net/DTD/sodipodi-0.dtd"
   xmlns:inkscape="http://www.inkscape.org/namespaces/inkscape"
   width="32"
   height="32"
   id="svg2"
   version="1.1"
   inkscape:version="0.48.5 r10040"
   sodipodi:docname="rabbit_dying_of_falling_slope_rise_left_05.svg">
  <defs
     id="defs4" />
  <sodipodi:namedview
     id="base"
     pagecolor="#ffffff"
     bordercolor="#666666"
     borderopacity="1.0"
     inkscape:pageopacity="0.0"
     inkscape:pageshadow="2"
     inkscape:zoom="23.688078"
     inkscape:cx="8.4611311"
     inkscape:cy="14.898141"
     inkscape:document-units="px"
     inkscape:current-layer="layer1"
     showgrid="true"
     inkscape:window-width="1920"
     inkscape:window-height="1014"
     inkscape:window-x="0"
     inkscape:window-y="27"
     inkscape:window-maximized="1">
    <inkscape:grid
       type="xygrid"
       id="grid3095" />
  </sodipodi:namedview>
  <metadata
     id="metadata7">
    <rdf:RDF>
      <cc:Work
         rdf:about="">
        <dc:format>image/svg+xml</dc:format>
        <dc:type
           rdf:resource="http://purl.org/dc/dcmitype/StillImage" />
        <dc:title />
      </cc:Work>
    </rdf:RDF>
  </metadata>
  <g
     inkscape:label="Layer 1"
     inkscape:groupmode="layer"
     id="layer1"
     transform="translate(0,-1020.3622)">
    <path
       sodipodi:type="arc"
       style="fill:#ffffff;fill-opacity:1;stroke:#000000;stroke-opacity:1;stroke-width:1.43408977;stroke-miterlimit:4;stroke-dasharray:none"
       id="path3768"
       sodipodi:cx="13.262222"
       sodipodi:cy="21.297777"
       sodipodi:rx="5.3688889"
       sodipodi:ry="8.6400003"
       d="m 18.631111,21.297777 c 0,4.771741 -2.403733,8.640001 -5.368889,8.640001 -2.965155,0 -5.3688886,-3.86826 -5.3688886,-8.640001 0,-4.77174 2.4037336,-8.64 5.3688886,-8.64 2.965156,0 5.368889,3.86826 5.368889,8.64 z"
       transform="matrix(0.60253398,-0.39437095,0.42155307,0.53107039,0.26585504,1025.1645)" />
    <path
       sodipodi:type="arc"
       style="fill:#ffffff;fill-opacity:1;stroke:#000000;stroke-opacity:1;stroke-width:2.85603305;stroke-miterlimit:4;stroke-dasharray:none"
       id="path3796-0"
       sodipodi:cx="13.795555"
       sodipodi:cy="27.946667"
       sodipodi:rx="3.6977777"
       sodipodi:ry="2.2755556"
       d="m 17.493333,27.946667 c 0,1.256754 -1.655552,2.275555 -3.697778,2.275555 -2.042226,0 -3.697778,-1.018801 -3.697778,-2.275555 0,-1.256755 1.655552,-2.275556 3.697778,-2.275556 2.042226,0 3.697778,1.018801 3.697778,2.275556 z"
       transform="matrix(0.26995133,-0.04459114,0.16860816,0.42628718,14.565616,1029.2289)" />
    <path
       sodipodi:type="arc"
       style="fill:#ffffff;fill-opacity:1;stroke:#000000;stroke-opacity:1;stroke-width:1.93338809;stroke-miterlimit:4;stroke-dasharray:none"
       id="path3792-5"
       sodipodi:cx="19.768888"
       sodipodi:cy="22.151112"
       sodipodi:rx="1.4222223"
       sodipodi:ry="3.8044446"
       d="m 21.191111,22.151112 c 0,2.101136 -0.636751,3.804444 -1.422223,3.804444 -0.785471,0 -1.422222,-1.703308 -1.422222,-3.804444 0,-2.101137 0.636751,-3.804445 1.422222,-3.804445 0.785472,0 1.422223,1.703308 1.422223,3.804445 z"
       transform="matrix(0.59668318,-0.25936969,0.1447961,0.38541018,6.8454583,1031.5835)" />
    <path
       sodipodi:type="arc"
       style="fill:#ffffff;fill-opacity:1;stroke:#000000;stroke-opacity:1;stroke-width:1.49414035;stroke-miterlimit:4;stroke-dasharray:none"
       id="path3772"
       sodipodi:cx="10.204445"
       sodipodi:cy="7.6088891"
       sodipodi:rx="3.3777778"
       sodipodi:ry="1.6355555"
       d="m 13.582223,7.6088891 c 0,0.9032924 -1.512283,1.6355555 -3.377778,1.6355555 -1.8654953,0 -3.3777779,-0.7322631 -3.3777779,-1.6355555 0,-0.9032924 1.5122826,-1.6355555 3.3777779,-1.6355555 1.865495,0 3.377778,0.7322631 3.377778,1.6355555 z"
       transform="matrix(-0.64003072,-0.01080962,0.05555979,-0.69893005,28.199281,1031.6474)" />
    <path
       sodipodi:type="arc"
       style="fill:#ffffff;fill-opacity:1;stroke:#000000;stroke-opacity:1;stroke-width:1.64914558;stroke-miterlimit:4;stroke-dasharray:none"
       id="path3770"
       sodipodi:cx="16.782223"
       sodipodi:cy="9.8488894"
       sodipodi:rx="4.8355556"
       sodipodi:ry="3.9466667"
       d="m 21.617778,9.8488894 c 0,2.1796836 -2.164952,3.9466666 -4.835555,3.9466666 -2.670604,0 -4.835556,-1.766983 -4.835556,-3.9466666 0,-2.1796839 2.164952,-3.9466668 4.835556,-3.9466668 2.670603,0 4.835555,1.7669829 4.835555,3.9466668 z"
       transform="matrix(-0.17318176,0.51723023,-0.66694973,-0.13121242,27.902813,1020.5988)" />
    <path
       sodipodi:type="arc"
       style="fill:#4d4d4b;fill-opacity:1;stroke:#000000;stroke-opacity:1;stroke-width:1.55495343;stroke-miterlimit:4;stroke-dasharray:none"
       id="path3772-7"
       sodipodi:cx="10.204445"
       sodipodi:cy="7.6088891"
       sodipodi:rx="3.3777778"
       sodipodi:ry="1.6355555"
       d="m 13.582223,7.6088891 c 0,0.9032924 -1.512283,1.6355555 -3.377778,1.6355555 -1.8654953,0 -3.3777779,-0.7322631 -3.3777779,-1.6355555 0,-0.9032924 1.5122826,-1.6355555 3.3777779,-1.6355555 1.865495,0 3.377778,0.7322631 3.377778,1.6355555 z"
       transform="matrix(-0.66169885,-0.10195306,0.12486922,-0.60579617,27.818259,1035.875)" />
    <path
       sodipodi:type="arc"
       style="fill:#ffffff;fill-opacity:1;stroke:#000000;stroke-opacity:1;stroke-width:1.1961062;stroke-miterlimit:4;stroke-dasharray:none"
       id="path3794"
       sodipodi:cx="20.088888"
       sodipodi:cy="9.7066669"
       sodipodi:rx="0.39111111"
       sodipodi:ry="0.39111111"
       d="m 20.479999,9.7066669 c 0,0.2160047 -0.175106,0.3911111 -0.391111,0.3911111 -0.216005,0 -0.391111,-0.1751064 -0.391111,-0.3911111 0,-0.2160047 0.175106,-0.3911111 0.391111,-0.3911111 0.216005,0 0.391111,0.1751064 0.391111,0.3911111 z"
       transform="matrix(-0.07840568,0.8203328,-0.84707278,-0.05218501,28.457401,1010.8167)" />
    <path
       sodipodi:type="arc"
       style="fill:#ffffff;fill-opacity:1;stroke:#000000;stroke-opacity:1;stroke-width:1.19827082;stroke-miterlimit:4;stroke-dasharray:none"
       id="path3794-0"
       sodipodi:cx="20.088888"
       sodipodi:cy="9.7066669"
       sodipodi:rx="0.39111111"
       sodipodi:ry="0.39111111"
       d="m 20.479999,9.7066669 c 0,0.2160047 -0.175106,0.3911111 -0.391111,0.3911111 -0.216005,0 -0.391111,-0.1751064 -0.391111,-0.3911111 0,-0.2160047 0.175106,-0.3911111 0.391111,-0.3911111 0.216005,0 0.391111,0.1751064 0.391111,0.3911111 z"
       transform="matrix(-0.08570143,0.89666589,-0.77216421,-0.04757018,27.596668,1011.5094)" />
  </g>
</svg>

<?xml version="1.0" encoding="UTF-8" standalone="no"?>
<!-- Created with Inkscape (http://www.inkscape.org/) -->

<svg
   xmlns:dc="http://purl.org/dc/elements/1.1/"
   xmlns:cc="http://creativecommons.org/ns#"
   xmlns:rdf="http://www.w3.org/1999/02/22-rdf-syntax-ns#"
   xmlns:svg="http://www.w3.org/2000/svg"
   xmlns="http://www.w3.org/2000/svg"
   xmlns:sodipodi="http://sodipodi.sourceforge.net/DTD/sodipodi-0.dtd"
   xmlns:inkscape="http://www.inkscape.org/namespaces/inkscape"
   width="32"
   height="32"
   id="svg2"
   version="1.1"
   inkscape:version="0.91 r13725"
   sodipodi:docname="boss_rabbit_dying_of_falling_slope_rise_left_05.svg">
  <defs
     id="defs4" />
  <sodipodi:namedview
     id="base"
     pagecolor="#ffffff"
     bordercolor="#666666"
     borderopacity="1.0"
     inkscape:pageopacity="0.0"
     inkscape:pageshadow="2"
     inkscape:zoom="23.688078"
     inkscape:cx="8.4611311"
     inkscape:cy="18.275367"
     inkscape:document-units="px"
     inkscape:current-layer="layer1"
     showgrid="true"
     inkscape:window-width="1366"
     inkscape:window-height="717"
     inkscape:window-x="0"
     inkscape:window-y="0"
     inkscape:window-maximized="1">
    <inkscape:grid
       type="xygrid"
       id="grid3095" />
  </sodipodi:namedview>
  <metadata
     id="metadata7">
    <rdf:RDF>
      <cc:Work
         rdf:about="">
        <dc:format>image/svg+xml</dc:format>
        <dc:type
           rdf:resource="http://purl.org/dc/dcmitype/StillImage" />
        <dc:title />
      </cc:Work>
    </rdf:RDF>
  </metadata>
  <g
     inkscape:label="Layer 1"
     inkscape:groupmode="layer"
     id="layer1"
     transform="translate(0,-1020.3622)">
    <path
       sodipodi:type="arc"
       style="fill:#000000;fill-opacity:1;stroke:#000000;stroke-opacity:1;stroke-width:1.43408977;stroke-miterlimit:4;stroke-dasharray:none"
       id="path3768"
       sodipodi:cx="13.262222"
       sodipodi:cy="21.297777"
       sodipodi:rx="5.3688889"
       sodipodi:ry="8.6400003"
       d="m 18.631111,21.297777 a 5.3688889,8.6400003 0 0 1 -5.368889,8.640001 5.3688889,8.6400003 0 0 1 -5.3688886,-8.640001 5.3688889,8.6400003 0 0 1 5.3688886,-8.64 5.3688889,8.6400003 0 0 1 5.368889,8.64 z"
       transform="matrix(0.60253398,-0.39437095,0.42155307,0.53107039,0.26585504,1025.1645)" />
    <path
       sodipodi:type="arc"
       style="fill:#ffffff;fill-opacity:1;stroke:#000000;stroke-opacity:1;stroke-width:2.85603305;stroke-miterlimit:4;stroke-dasharray:none"
       id="path3796-0"
       sodipodi:cx="13.795555"
       sodipodi:cy="27.946667"
       sodipodi:rx="3.6977777"
       sodipodi:ry="2.2755556"
       d="m 17.493333,27.946667 a 3.6977777,2.2755556 0 0 1 -3.697778,2.275555 3.6977777,2.2755556 0 0 1 -3.697778,-2.275555 3.6977777,2.2755556 0 0 1 3.697778,-2.275556 3.6977777,2.2755556 0 0 1 3.697778,2.275556 z"
       transform="matrix(0.26995133,-0.04459114,0.16860816,0.42628718,14.565616,1029.2289)" />
    <path
       sodipodi:type="arc"
       style="fill:#ffffff;fill-opacity:1;stroke:#000000;stroke-opacity:1;stroke-width:1.93338809;stroke-miterlimit:4;stroke-dasharray:none"
       id="path3792-5"
       sodipodi:cx="19.768888"
       sodipodi:cy="22.151112"
       sodipodi:rx="1.4222223"
       sodipodi:ry="3.8044446"
       d="m 21.191111,22.151112 a 1.4222223,3.8044446 0 0 1 -1.422223,3.804444 1.4222223,3.8044446 0 0 1 -1.422222,-3.804444 1.4222223,3.8044446 0 0 1 1.422222,-3.804445 1.4222223,3.8044446 0 0 1 1.422223,3.804445 z"
       transform="matrix(0.59668318,-0.25936969,0.1447961,0.38541018,6.8454583,1031.5835)" />
    <path
       sodipodi:type="arc"
       style="fill:#000000;fill-opacity:1;stroke:#000000;stroke-opacity:1;stroke-width:1.49414035;stroke-miterlimit:4;stroke-dasharray:none"
       id="path3772"
       sodipodi:cx="10.204445"
       sodipodi:cy="7.6088891"
       sodipodi:rx="3.3777778"
       sodipodi:ry="1.6355555"
       d="M 13.582223,7.6088891 A 3.3777778,1.6355555 0 0 1 10.204445,9.2444446 3.3777778,1.6355555 0 0 1 6.8266671,7.6088891 3.3777778,1.6355555 0 0 1 10.204445,5.9733336 3.3777778,1.6355555 0 0 1 13.582223,7.6088891 Z"
       transform="matrix(-0.64003072,-0.01080962,0.05555979,-0.69893005,28.199281,1031.6474)" />
    <path
       sodipodi:type="arc"
       style="fill:#ffffff;fill-opacity:1;stroke:#000000;stroke-opacity:1;stroke-width:1.64914558;stroke-miterlimit:4;stroke-dasharray:none"
       id="path3770"
       sodipodi:cx="16.782223"
       sodipodi:cy="9.8488894"
       sodipodi:rx="4.8355556"
       sodipodi:ry="3.9466667"
       d="M 21.617778,9.8488894 A 4.8355556,3.9466667 0 0 1 16.782223,13.795556 4.8355556,3.9466667 0 0 1 11.946667,9.8488894 4.8355556,3.9466667 0 0 1 16.782223,5.9022226 4.8355556,3.9466667 0 0 1 21.617778,9.8488894 Z"
       transform="matrix(-0.17318176,0.51723023,-0.66694973,-0.13121242,27.902813,1020.5988)" />
    <path
       sodipodi:type="arc"
       style="fill:#000000;fill-opacity:1;stroke:#000000;stroke-opacity:1;stroke-width:1.55495343;stroke-miterlimit:4;stroke-dasharray:none"
       id="path3772-7"
       sodipodi:cx="10.204445"
       sodipodi:cy="7.6088891"
       sodipodi:rx="3.3777778"
       sodipodi:ry="1.6355555"
       d="M 13.582223,7.6088891 A 3.3777778,1.6355555 0 0 1 10.204445,9.2444446 3.3777778,1.6355555 0 0 1 6.8266671,7.6088891 3.3777778,1.6355555 0 0 1 10.204445,5.9733336 3.3777778,1.6355555 0 0 1 13.582223,7.6088891 Z"
       transform="matrix(-0.66169885,-0.10195306,0.12486922,-0.60579617,27.818259,1035.875)" />
    <path
       sodipodi:type="arc"
       style="fill:#ffffff;fill-opacity:1;stroke:#000000;stroke-opacity:1;stroke-width:1.1961062;stroke-miterlimit:4;stroke-dasharray:none"
       id="path3794"
       sodipodi:cx="20.088888"
       sodipodi:cy="9.7066669"
       sodipodi:rx="0.39111111"
       sodipodi:ry="0.39111111"
       d="M 20.479999,9.7066669 A 0.39111111,0.39111111 0 0 1 20.088888,10.097778 0.39111111,0.39111111 0 0 1 19.697777,9.7066669 0.39111111,0.39111111 0 0 1 20.088888,9.3155558 0.39111111,0.39111111 0 0 1 20.479999,9.7066669 Z"
       transform="matrix(-0.07840568,0.8203328,-0.84707278,-0.05218501,28.457401,1010.8167)" />
    <path
       sodipodi:type="arc"
       style="fill:#ffffff;fill-opacity:1;stroke:#000000;stroke-opacity:1;stroke-width:1.19827082;stroke-miterlimit:4;stroke-dasharray:none"
       id="path3794-0"
       sodipodi:cx="20.088888"
       sodipodi:cy="9.7066669"
       sodipodi:rx="0.39111111"
       sodipodi:ry="0.39111111"
       d="M 20.479999,9.7066669 A 0.39111111,0.39111111 0 0 1 20.088888,10.097778 0.39111111,0.39111111 0 0 1 19.697777,9.7066669 0.39111111,0.39111111 0 0 1 20.088888,9.3155558 0.39111111,0.39111111 0 0 1 20.479999,9.7066669 Z"
       transform="matrix(-0.08570143,0.89666589,-0.77216421,-0.04757018,27.596668,1011.5094)" />
  </g>
</svg>
